X:1
T:Drummchary House
M:C|
L:1/8
R:Reel
S:MacDonald - Collection of Strathspey Reels, vol. 1
Z:AK/Fiddler's Companion
K:D
e | d/d/d fd gefd | AGFD ECCe | d/d/d fd gefd | Agfe fe d :|
f/g/ | afdf afdg | egcg eg cf/g/ | afdf afdf | edcA fddf/g/ |
afdf afdf | egcg eg cf/g/ | afge fdec | Agfe fd d ||

